app/dist/common/images/callon-petroleum.svg

<svg height="18" width="18" xmlns="http://www.w3.org/2000/svg"><path d="m0 0h18v18h-18z" fill="#002856"/><path d="m9.993 13.85c0 .079-.056.15-.133.15h-1.727c-.07 0-.133-.063-.133-.15v-9.7c0-.079.056-.15.133-.15h1.734c.07 0 .133.063.133.15v2.85h.993l.007-2.886c0-.616-.442-1.114-.988-1.114h-2.024c-.546 0-.988.498-.988 1.114l.007 9.772c0 .616.442 1.114.988 1.114h2.01c.546 0 .988-.498.988-1.114v-2.886h-.993z" fill="#fff"/></svg>

<!-- by TradingView --><svg width="18" height="18" xmlns="http://www.w3.org/2000/svg"><path fill="#002856" d="M0 0h18v18H0z"/><path d="M9.993 13.85c0 .079-.056.15-.133.15H8.133c-.07 0-.133-.063-.133-.15v-9.7c0-.079.056-.15.133-.15h1.734c.07 0 .133.063.133.15V7h.993L11 4.114C11 3.498 10.558 3 10.012 3H7.988C7.442 3 7 3.498 7 4.114l.007 9.772c0 .616.442 1.114.988 1.114h2.01c.546 0 .988-.498.988-1.114V11H10l-.007 2.85z" fill="#fff"/></svg>
